X:171
T:Morgans Whim THO3.171
O:England;London
M:C|
L:1/8
Z:vmp. Peter Dunk 2011.from a transcription by Fynn Titford-Mock 2006-9
B:Thompson's Compleat Collection of 200 Favourite Country Dances Vol. III.1765-72
Q:1/2=80
U:w=!wedge!
K:A
e3 d {d}c3 B|wA(cTBA) wG(FTED)|(CEA)wc (EGB)wd|(cA)(ec) (Tc2B2):|
|:B3 A wG(FGB)|e3 d wc(Bce)|a3 =g wf(def)|we(dcB) (B2A2):|

